X:94
T:C\'unla
R:song
Z:id:hn-song-94
M:6/8
L:1/8
Q:3/8=120
K:Dmix
FED F2G | Add cAG |
ABA A2G | FGF FED |
FED F2G | Add cAG |
FAA G2E | D3 D3 ||
d2e f2d | eed cAG |
A2A A2G | FGF FED |
d2e f2d | eed cAG |
FAA GE^C | D3 D3 ||
W:Who is that there now knocking the door to me
W:Who is that there now knocking the door to me
W:Who is that there now knocking the door to me
W:Only meself says C\'unla
W:
W:Chorus:
W:C\'unla dear don't come any nearer me
W:C\'unla dear don't come any nearer me
W:C\'unla dear don't come any nearer me
W:Maybe I shouldn't says C\'unla
W:
W:Who is that there now tapping the window pane
W:Who is that there now tapping the window pane
W:Who is that there now tapping the window pane
W:Only meself says C\'unla
W:
W:Chorus
W:
W:Who's that there now climbing the stairs to me
W:Who's that there now climbing the stairs to me
W:Who's that there now climbing the stairs to me
W:Only meself says C\'unla
W:
W:Chorus
W:
W:Who's that there now pulling the blankets down
W:Who's that there now pulling the blankets down
W:Who's that there now pulling the blankets down
W:Only meself says C\'unla
W:
W:Chorus
W:
W:Who is that there now tickling the toes of me
W:Who is that there now tickling the toes of me
W:Who is that there now tickling the toes of me
W:Only meself says C\'unla
W:
W:Chorus
W:
W:Who is that there now tickling the thighs of me
W:Who is that there now tickling the thighs of me
W:Who is that there now tickling the thighs of me
W:Only meself says C\'unla
W:
W:Chorus
W:
W:Who is that there that's raking the fire for me
W:Who is that there that's raking the fire for me
W:Who is that there that's raking the fire for me
W:Only meself says C\'unla 
W:
W:Chorus

